rospo-icon-theme-classic-common/32x32/apps/gelemental.svg

<svg height="32" width="32" xmlns="http://www.w3.org/2000/svg"><path d="m14.800781 3c-1.5512 0-2.800781 1.2495813-2.800781 2.8007812v8.3984378c0 .183175.01947.361972.05273.535156a4.7405738 3.8689896 0 0 0 -.158203.199219l-3.628906 5.132812-3.6308594 5.13086a4.7405738 3.8689896 0 0 0 4.1054728 5.802734h7.2597656 7.259766a4.7405738 3.8689896 0 0 0 4.105468-5.802734l-3.630859-5.13086-3.628906-5.132812a4.7405738 3.8689896 0 0 0 -.158203-.199219c.033269-.173184.052734-.351981.052734-.535156v-8.3984378c0-1.5511999-1.249581-2.8007812-2.800781-2.8007812z" opacity=".2"/><rect fill="#e4e4e4" height="14" ry="2.8" width="8" x="12" y="2"/><path d="m16.223136 12.004269a4.7405738 3.8689896 0 0 0 -4.327815 1.92982l-3.6304077 5.131648-3.6304095 5.131645a4.7405738 3.8689896 0 0 0 4.1055276 5.802618h7.2599676 7.25997a4.7405738 3.8689896 0 0 0 4.105528-5.802618l-3.63041-5.131645-3.629561-5.131647a4.7405738 3.8689896 0 0 0 -3.88239-1.929821z" fill="#e4e4e4"/><g fill="#b343ff"><path d="m16.5 6a1.5 1.5 0 0 0 -1.5 1.5 1.5 1.5 0 0 0 1.5 1.5 1.5 1.5 0 0 0 1.5-1.5 1.5 1.5 0 0 0 -1.5-1.5z"/><path d="m14.5 10a1.5 1.5 0 0 0 -1.5 1.5 1.5 1.5 0 0 0 1.5 1.5 1.5 1.5 0 0 0 1.5-1.5 1.5 1.5 0 0 0 -1.5-1.5z"/><path d="m17.5 13a1.5 1.5 0 0 0 -1.5 1.5 1.5 1.5 0 0 0 1.5 1.5 1.5 1.5 0 0 0 1.5-1.5 1.5 1.5 0 0 0 -1.5-1.5z"/><path d="m14.5 17a1.5 1.5 0 0 0 -1.5 1.5 1.5 1.5 0 0 0 1.5 1.5 1.5 1.5 0 0 0 1.5-1.5 1.5 1.5 0 0 0 -1.5-1.5z"/><path d="m10.693385 22.000371-1.3191997 1.989258c-1.0633976 1.604916.2663394 3.010375 2.3936907 3.010371h4.232123 4.232125c2.127351.000003 3.457088-1.405455 2.39369-3.010371l-1.3192-1.989258z"/></g><path d="m14.800781 2c-1.5512 0-2.800781 1.2495813-2.800781 2.8007812v1c0-1.5511999 1.249581-2.8007812 2.800781-2.8007812h2.398438c1.5512 0 2.800781 1.2495813 2.800781 2.8007812v-1c0-1.5511999-1.249581-2.8007812-2.800781-2.8007812zm-2.800781 11.800781a4.7405738 3.8689896 0 0 0 -.105469.132813l-3.628906 5.132812-3.6308594 5.13086a4.7405738 3.8689896 0 0 0 -.5898437 2.423828 4.7405738 3.8689896 0 0 1  .5898437-1.423828l3.6308594-5.13086 3.628906-5.132812a4.7405738 3.8689896 0 0 1  .158203-.199219c-.03326-.173184-.052734-.351981-.052734-.535156zm8 0v .398438c0 .183175-.019465.361972-.052734.535156a4.7405738 3.8689896 0 0 1  .158203.199219l3.628906 5.132812 3.630859 5.13086a4.7405738 3.8689896 0 0 1  .591797 1.417968 4.7405738 3.8689896 0 0 0 -.591797-2.417968l-3.630859-5.13086-3.628906-5.132812a4.7405738 3.8689896 0 0 0 -.105469-.132813z" fill="#fff" opacity=".2"/></svg>

<svg xmlns="http://www.w3.org/2000/svg" width="32" height="32" version="1">
 <path style="opacity:0.2" d="M 14.800781,3 C 13.249581,3 12,4.2495813 12,5.8007812 l 0,8.3984378 c 0,0.183175 0.01947,0.361972 0.05273,0.535156 a 4.7405738,3.8689896 0 0 0 -0.158203,0.199219 l -3.628906,5.132812 -3.6308594,5.13086 A 4.7405738,3.8689896 0 0 0 8.7402344,31 L 16,31 l 7.259766,0 a 4.7405738,3.8689896 0 0 0 4.105468,-5.802734 l -3.630859,-5.13086 -3.628906,-5.132812 A 4.7405738,3.8689896 0 0 0 19.947266,14.734375 C 19.980535,14.561191 20,14.382394 20,14.199219 L 20,5.8007812 C 20,4.2495813 18.750419,3 17.199219,3 l -2.398438,0 z"/>
 <rect style="fill:#cccccc" width="8" height="14" x="12" y="2" ry="2.8"/>
 <path style="fill:#cccccc" d="m 16.223136,12.004269 a 4.7405738,3.8689896 0 0 0 -4.327815,1.92982 L 8.2649133,19.065737 4.6345038,24.197382 A 4.7405738,3.8689896 0 0 0 8.7400314,30 l 7.2599676,0 7.25997,0 a 4.7405738,3.8689896 0 0 0 4.105528,-5.802618 l -3.63041,-5.131645 -3.629561,-5.131647 a 4.7405738,3.8689896 0 0 0 -3.88239,-1.929821 z"/>
 <path style="fill:#b343ff" d="M 16.5,6 A 1.5,1.5 0 0 0 15,7.5 1.5,1.5 0 0 0 16.5,9 1.5,1.5 0 0 0 18,7.5 1.5,1.5 0 0 0 16.5,6 Z"/>
 <path style="fill:#b343ff" d="M 14.5,10 A 1.5,1.5 0 0 0 13,11.5 1.5,1.5 0 0 0 14.5,13 1.5,1.5 0 0 0 16,11.5 1.5,1.5 0 0 0 14.5,10 Z"/>
 <path style="fill:#b343ff" d="M 17.5,13 A 1.5,1.5 0 0 0 16,14.5 1.5,1.5 0 0 0 17.5,16 1.5,1.5 0 0 0 19,14.5 1.5,1.5 0 0 0 17.5,13 Z"/>
 <path style="fill:#b343ff" d="M 14.5,17 A 1.5,1.5 0 0 0 13,18.5 1.5,1.5 0 0 0 14.5,20 1.5,1.5 0 0 0 16,18.5 1.5,1.5 0 0 0 14.5,17 Z"/>
 <path style="fill:#b343ff" d="M 10.693385,22.000371 9.3741853,23.989629 C 8.3107877,25.594545 9.6405247,27.000004 11.767876,27 l 4.232123,0 4.232125,0 c 2.127351,3e-6 3.457088,-1.405455 2.39369,-3.010371 l -1.3192,-1.989258 z"/>
 <path style="opacity:0.2;fill:#ffffff" d="M 14.800781 2 C 13.249581 2 12 3.2495813 12 4.8007812 L 12 5.8007812 C 12 4.2495813 13.249581 3 14.800781 3 L 17.199219 3 C 18.750419 3 20 4.2495813 20 5.8007812 L 20 4.8007812 C 20 3.2495813 18.750419 2 17.199219 2 L 14.800781 2 z M 12 13.800781 A 4.7405738 3.8689896 0 0 0 11.894531 13.933594 L 8.265625 19.066406 L 4.6347656 24.197266 A 4.7405738 3.8689896 0 0 0 4.0449219 26.621094 A 4.7405738 3.8689896 0 0 1 4.6347656 25.197266 L 8.265625 20.066406 L 11.894531 14.933594 A 4.7405738 3.8689896 0 0 1 12.052734 14.734375 C 12.019474 14.561191 12 14.382394 12 14.199219 L 12 13.800781 z M 20 13.800781 L 20 14.199219 C 20 14.382394 19.980535 14.561191 19.947266 14.734375 A 4.7405738 3.8689896 0 0 1 20.105469 14.933594 L 23.734375 20.066406 L 27.365234 25.197266 A 4.7405738 3.8689896 0 0 1 27.957031 26.615234 A 4.7405738 3.8689896 0 0 0 27.365234 24.197266 L 23.734375 19.066406 L 20.105469 13.933594 A 4.7405738 3.8689896 0 0 0 20 13.800781 z"/>
</svg>
